_site/images/resources-page/icon-saas-escrow.svg

<svg fill="none" height="70" viewBox="0 0 70 70" width="70" xmlns="http://www.w3.org/2000/svg"><g fill="#00a0b6"><path d="m24.8369 4.51611c-4.9803 0-9.0322 4.05195-9.0322 9.03229h2.2581c0-3.73609 3.0381-6.77422 6.7741-6.77422z"/><path d="m60.9677 38.3871h-15.8064v-5.6452h14.6774c5.6022 0 10.1613-4.5591 10.1613-10.1613 0-5.6021-4.5591-10.1612-10.1613-10.1612h-1.1864c-.5772-6.94238-6.402-12.4194-13.491-12.4194-3.8976 0-7.5885 1.69796-10.1464 4.59496-2.5177-2.8755-6.175-4.59496-10.1762-4.59496-7.1165 0-12.9568 5.52002-13.4955 12.5004-1.52646-.1858-3.02761-.0199-4.47639.5105-4.23277 1.548-6.9280027 5.3618-6.86570743 9.7164.07883373 5.5222 4.63575743 10.0146 10.16019743 10.0146h16.9355v5.6452h-18.06454v11.2903h-9.03226v20.3226h20.3226v-20.3226h-9.0323v-9.0322h18.0645v-7.9033h4.5162v16.9355h-9.0323v20.3226h20.3226v-20.3226h-9.0323v-19.1935h-25.9677c-4.29618 0-7.84094-3.4935-7.90213-7.788-.04741-3.3816 2.06511-6.3508 5.3833-7.5648 1.21227-.4438 2.43613-.5441 3.71123-.3396.0755.8297.22 1.6517.446 2.451l2.1732-.6141c-.2823-.9978-.4245-2.0337-.4245-3.08 0-6.22568 5.0646-11.29034 11.2903-11.29034 4.6865 0 8.8167 2.82038 10.5202 7.18491l2.1037-.82142c-.2961-.75691-.6582-1.46807-1.0684-2.1434 2.1395-2.64617 5.3541-4.22009 8.7671-4.22009 5.8447 0 10.6646 4.46431 11.233 10.16134h-4.4588v2.258h7.9032c4.3579 0 7.9032 3.5453 7.9032 7.9032 0 4.358-3.5453 7.9033-7.9032 7.9033h-16.9355v10.1613h15.8065v9.0322h-9.0323v20.3226h20.3226v-20.3226h-9.0323zm-58.70964 29.3548v-6.7742h15.80644v6.7742zm15.80644-9.0322h-15.80644v-6.7742h15.80644zm9.0323 9.0322v-6.7742h15.8064v6.7742zm15.8064-9.0322h-15.8064v-6.7742h15.8064zm9.0323 9.0322v-6.7742h15.8064v6.7742zm15.8064-9.0322h-15.8064v-6.7742h15.8064z"/><path d="m29.3555 19.1936h2.258v2.2581h-2.258z"/><path d="m33.8711 19.1936h2.2581v2.2581h-2.2581z"/><path d="m38.3867 19.1936h2.2581v2.2581h-2.2581z"/><path d="m45.159 19.1936h-2.258v4.5161h-22.5807v2.2581h24.8387z"/><path d="m30.4844 54.1936h2.258v2.2581h-2.258z"/><path d="m37.2578 54.1936h2.2581v2.2581h-2.2581z"/><path d="m30.4844 63.2258h2.258v2.2581h-2.258z"/><path d="m37.2578 63.2258h2.2581v2.2581h-2.2581z"/><path d="m5.64453 54.1936h2.25807v2.2581h-2.25807z"/><path d="m12.418 54.1936h2.258v2.2581h-2.258z"/><path d="m5.64453 63.2258h2.25807v2.2581h-2.25807z"/><path d="m12.418 63.2258h2.258v2.2581h-2.258z"/><path d="m55.3203 54.1936h2.2581v2.2581h-2.2581z"/><path d="m62.0977 54.1936h2.258v2.2581h-2.258z"/><path d="m55.3203 63.2258h2.2581v2.2581h-2.2581z"/><path d="m62.0977 63.2258h2.258v2.2581h-2.258z"/></g></svg>

<svg width="70" height="70" viewBox="0 0 70 70" fill="none" xmlns="http://www.w3.org/2000/svg">
<path d="M24.8369 4.51611C19.8566 4.51611 15.8047 8.56806 15.8047 13.5484H18.0628C18.0628 9.81231 21.1009 6.77418 24.8369 6.77418V4.51611Z" fill="#00A0B6"/>
<path d="M60.9677 38.3871H45.1613V32.7419H59.8387C65.4409 32.7419 70 28.1828 70 22.5806C70 16.9785 65.4409 12.4194 59.8387 12.4194H58.6523C58.0751 5.47702 52.2503 0 45.1613 0C41.2637 0 37.5728 1.69796 35.0149 4.59496C32.4972 1.71946 28.8399 0 24.8387 0C17.7222 0 11.8819 5.52002 11.3432 12.5004C9.81674 12.3146 8.31559 12.4805 6.86681 13.0109C2.63404 14.5589 -0.0611927 18.3727 0.00110257 22.7273C0.0799363 28.2495 4.63686 32.7419 10.1613 32.7419H27.0968V38.3871H9.03226V49.6774H0V70H20.3226V49.6774H11.2903V40.6452H29.3548V32.7419H33.871V49.6774H24.8387V70H45.1613V49.6774H36.129V30.4839H10.1613C5.86512 30.4839 2.32036 26.9904 2.25917 22.6959C2.21176 19.3143 4.32428 16.3451 7.64247 15.1311C8.85474 14.6873 10.0786 14.587 11.3537 14.7915C11.4292 15.6212 11.5737 16.4432 11.7997 17.2425L13.9729 16.6284C13.6906 15.6306 13.5484 14.5947 13.5484 13.5484C13.5484 7.32272 18.613 2.25806 24.8387 2.25806C29.5252 2.25806 33.6554 5.07844 35.3589 9.44297L37.4626 8.62155C37.1665 7.86464 36.8044 7.15348 36.3942 6.47815C38.5337 3.83198 41.7483 2.25806 45.1613 2.25806C51.006 2.25806 55.8259 6.72237 56.3943 12.4194H51.9355V14.6774H59.8387C64.1966 14.6774 67.7419 18.2227 67.7419 22.5806C67.7419 26.9386 64.1966 30.4839 59.8387 30.4839H42.9032V40.6452H58.7097V49.6774H49.6774V70H70V49.6774H60.9677V38.3871ZM2.25806 67.7419V60.9677H18.0645V67.7419H2.25806ZM18.0645 58.7097H2.25806V51.9355H18.0645V58.7097ZM27.0968 67.7419V60.9677H42.9032V67.7419H27.0968ZM42.9032 58.7097H27.0968V51.9355H42.9032V58.7097ZM51.9355 67.7419V60.9677H67.7419V67.7419H51.9355ZM67.7419 58.7097H51.9355V51.9355H67.7419V58.7097Z" fill="#00A0B6"/>
<path d="M29.3555 19.1936H31.6135V21.4517H29.3555V19.1936Z" fill="#00A0B6"/>
<path d="M33.8711 19.1936H36.1292V21.4517H33.8711V19.1936Z" fill="#00A0B6"/>
<path d="M38.3867 19.1936H40.6448V21.4517H38.3867V19.1936Z" fill="#00A0B6"/>
<path d="M45.159 19.1936H42.901V23.7097H20.3203V25.9678H45.159V19.1936Z" fill="#00A0B6"/>
<path d="M30.4844 54.1936H32.7424V56.4517H30.4844V54.1936Z" fill="#00A0B6"/>
<path d="M37.2578 54.1936H39.5159V56.4517H37.2578V54.1936Z" fill="#00A0B6"/>
<path d="M30.4844 63.2258H32.7424V65.4839H30.4844V63.2258Z" fill="#00A0B6"/>
<path d="M37.2578 63.2258H39.5159V65.4839H37.2578V63.2258Z" fill="#00A0B6"/>
<path d="M5.64453 54.1936H7.9026V56.4517H5.64453V54.1936Z" fill="#00A0B6"/>
<path d="M12.418 54.1936H14.676V56.4517H12.418V54.1936Z" fill="#00A0B6"/>
<path d="M5.64453 63.2258H7.9026V65.4839H5.64453V63.2258Z" fill="#00A0B6"/>
<path d="M12.418 63.2258H14.676V65.4839H12.418V63.2258Z" fill="#00A0B6"/>
<path d="M55.3203 54.1936H57.5784V56.4517H55.3203V54.1936Z" fill="#00A0B6"/>
<path d="M62.0977 54.1936H64.3557V56.4517H62.0977V54.1936Z" fill="#00A0B6"/>
<path d="M55.3203 63.2258H57.5784V65.4839H55.3203V63.2258Z" fill="#00A0B6"/>
<path d="M62.0977 63.2258H64.3557V65.4839H62.0977V63.2258Z" fill="#00A0B6"/>
</svg>
